assets/img/sponsors/vip-it.svg

<svg viewBox="0 0 231.87 193.93" xmlns="http://www.w3.org/2000/svg"><g fill="#0071bc"><path d="m45 193.93a15.62 15.62 0 0 1 -15.58-15.58v-99.44a15.62 15.62 0 0 1 15.58-15.58 15.62 15.62 0 0 1 15.58 15.58v99.45a15.62 15.62 0 0 1 -15.58 15.57z"/><path d="m45 51.35a15.62 15.62 0 0 1 -15.57-15.57 15.62 15.62 0 0 1 15.57-15.58 15.62 15.62 0 0 1 15.58 15.58 15.62 15.62 0 0 1 -15.58 15.57z"/><path d="m177.88 63.33h-99.45a15.62 15.62 0 0 0 -15.58 15.58 15.62 15.62 0 0 0 15.58 15.58h34.15v83.87a15.62 15.62 0 0 0 15.58 15.58 15.62 15.62 0 0 0 15.58-15.58v-83.87h34.15a15.62 15.62 0 0 0 15.58-15.58 15.62 15.62 0 0 0 -15.59-15.58z"/><circle cx="15.29" cy="7.26" r="7.26"/><circle cx="8.15" cy="57.7" r="8.15"/><circle cx="75.43" cy="26.67" r="7.43"/><path d="m25.9 6.06h3.59v27.32h-3.59z" transform="matrix(.70710678 -.70710678 .70710678 .70710678 -5.83 25.36)"/><path d="m11.29 45.49h27.32v3.59h-27.32z" transform="matrix(.83571153 -.54916869 .54916869 .83571153 -21.87 21.47)"/><path d="m49.2 29.12h27.32v3.59h-27.32z" transform="matrix(.93282782 -.36032245 .36032245 .93282782 -6.92 24.73)"/></g><path d="m87.66 50.39a123.26 123.26 0 0 1 31.34-13.66c3.45-1 64.29-17 86.75 12.94a39.25 39.25 0 0 1 6.95 16.06c9 44-53.82 89.92-59.43 93.93a180.31 180.31 0 0 0 34.75-23.72c14.47-12.59 35.3-30.72 41.46-59.43 2-9.09 5.68-26.47-4.07-40-8.64-12-23.3-14.7-32.6-16.26-44.81-7.57-88.72 19.1-105.15 30.14z" fill="#f26722"/></svg>

<svg xmlns="http://www.w3.org/2000/svg" viewBox="0 0 231.87 193.93"><defs><style>.cls-1{fill:#0071bc;}.cls-2{fill:#f26722;}</style></defs><title>Asset 2</title><g id="Layer_2" data-name="Layer 2"><g id="Layer_1-2" data-name="Layer 1"><path class="cls-1" d="M45,193.93h0a15.62,15.62,0,0,1-15.58-15.58V78.91A15.62,15.62,0,0,1,45,63.33h0A15.62,15.62,0,0,1,60.58,78.91v99.45A15.62,15.62,0,0,1,45,193.93Z"/><path class="cls-1" d="M45,51.35h0A15.62,15.62,0,0,1,29.43,35.78h0A15.62,15.62,0,0,1,45,20.2h0A15.62,15.62,0,0,1,60.58,35.78h0A15.62,15.62,0,0,1,45,51.35Z"/><path class="cls-1" d="M177.88,63.33H78.43A15.62,15.62,0,0,0,62.85,78.91h0A15.62,15.62,0,0,0,78.43,94.49h34.15v83.87a15.62,15.62,0,0,0,15.58,15.58h0a15.62,15.62,0,0,0,15.58-15.58V94.49h34.15a15.62,15.62,0,0,0,15.58-15.58h0A15.62,15.62,0,0,0,177.88,63.33Z"/><circle class="cls-1" cx="15.29" cy="7.26" r="7.26"/><circle class="cls-1" cx="8.15" cy="57.7" r="8.15"/><circle class="cls-1" cx="75.43" cy="26.67" r="7.43"/><rect class="cls-1" x="25.9" y="6.06" width="3.59" height="27.32" transform="translate(-5.83 25.36) rotate(-45)"/><rect class="cls-1" x="11.29" y="45.49" width="27.32" height="3.59" transform="translate(-21.87 21.47) rotate(-33.31)"/><rect class="cls-1" x="49.2" y="29.12" width="27.32" height="3.59" transform="translate(-6.92 24.73) rotate(-21.12)"/><path class="cls-2" d="M87.66,50.39A123.26,123.26,0,0,1,119,36.73c3.45-1,64.29-17,86.75,12.94a39.25,39.25,0,0,1,6.95,16.06c9,44-53.82,89.92-59.43,93.93a180.31,180.31,0,0,0,34.75-23.72c14.47-12.59,35.3-30.72,41.46-59.43,2-9.09,5.68-26.47-4.07-40-8.64-12-23.3-14.7-32.6-16.26C148,12.68,104.09,39.35,87.66,50.39Z"/></g></g></svg>
